images/confectionery.svg

<?xml version="1.0" encoding="UTF-8" standalone="no"?>
<!-- Created with Inkscape (http://www.inkscape.org/) -->

<svg xmlns:dc="http://purl.org/dc/elements/1.1/" xmlns:cc="http://creativecommons.org/ns#" xmlns:rdf="http://www.w3.org/1999/02/22-rdf-syntax-ns#" xmlns:svg="http://www.w3.org/2000/svg" xmlns="http://www.w3.org/2000/svg" xmlns:sodipodi="http://sodipodi.sourceforge.net/DTD/sodipodi-0.dtd" xmlns:inkscape="http://www.inkscape.org/namespaces/inkscape" version="1.1" width="14" height="14" viewBox="0 0 14 14" id="svg2" sodipodi:docname="confectionery.svg" inkscape:version="0.92.3 (2405546, 2018-03-11)">
  <sodipodi:namedview pagecolor="#ffffff" bordercolor="#666666" borderopacity="1" objecttolerance="10" gridtolerance="10" guidetolerance="10" inkscape:pageopacity="0" inkscape:pageshadow="2" inkscape:window-width="1881" inkscape:window-height="1051" id="namedview3277" showgrid="false" inkscape:zoom="16.857143" inkscape:cx="-3.4703389" inkscape:cy="7.0000001" inkscape:window-x="0" inkscape:window-y="0" inkscape:window-maximized="1" inkscape:current-layer="svg2" inkscape:pagecheckerboard="true" />
  <defs id="defs3053" />
  <metadata id="metadata8">
    <rdf:RDF>
      <cc:Work rdf:about="">
        <dc:format>image/svg+xml</dc:format>
        <dc:type rdf:resource="http://purl.org/dc/dcmitype/StillImage" />
        <dc:title></dc:title>
      </cc:Work>
    </rdf:RDF>
  </metadata>
  <path style="fill:none;fill-opacity:1;stroke:#ffffff;stroke-width:3;stroke-linecap:round;stroke-linejoin:round;stroke-miterlimit:4;stroke-dasharray:none;stroke-opacity:0.50196078" id="outline" d="M 0.40106652,7 C 0.38814368,6 2,4 4,4 C 5,4.0319271 6,5.5872292 7,5.5393387 C 8,5.6564044 9,3.9946789 10,4 C 12,4 13.571453,6 13.574494,7 C 13.265866,7 12.839985,7 12.531357,7 C 12,6 11,5.4873703 10,5.4455611 C 9,5.5519845 8,7.0053211 7,7 C 6,7.0266058 5,5.6085387 4,5.5393635 C 3,5.5119975 2,6 1.5793983,7 C 1.2335222,7 0.7469426,7 0.40106652,7 Z M 9,2 C 9,3.1045695 8.1045695,4 7,4 C 5.8954305,4 5,3.1045695 5,2 C 5,0.8954305 5.8954305,0 7,0 C 7.9169484,0 8.7164405,0.62354577 8.939772,1.5128812 M 3,13 L 1,8 C 1.7198259,8.1439652 2.386627,8.8974868 3,9 C 3.4051047,9.067705 4.6285639,7.9642005 5,8 C 5.9356113,8.090175 6.2760392,8.9169674 7,9 C 7.7579429,9.08693 8.0697208,8.192843 9,8 C 9.4492744,7.906867 10.378386,8.9467524 11,9 C 11.767967,9.065784 12.251963,8.1496073 13,8 L 11,13 C 10,14 9,14 7,14 C 5,14 4,14 3,13 Z" inkscape:connector-curvature="0" />
  <path d="M 0.40106652,7 C 0.38814368,6 2,4 4,4 5,4.0319271 6,5.5872292 7,5.5393387 8,5.6564044 9,3.9946789 10,4 12,4 13.571453,6 13.574494,7 13.265866,7 12.839985,7 12.531357,7 12,6 11,5.4873703 10,5.4455611 9,5.5519845 8,7.0053211 7,7 6,7.0266058 5,5.6085387 4,5.5393635 3,5.5119975 2,6 1.5793983,7 1.2335222,7 0.7469426,7 0.40106652,7 z M 9,2 C 9,3.1045695 8.1045695,4 7,4 5.8954305,4 5,3.1045695 5,2 5,0.8954305 5.8954305,0 7,0 7.9169484,0 8.7164405,0.62354577 8.939772,1.5128812 M 3,13 1,8 C 1.7198259,8.1439652 2.386627,8.8974868 3,9 3.4051047,9.067705 4.6285639,7.9642005 5,8 5.9356113,8.090175 6.2760392,8.9169674 7,9 7.7579429,9.08693 8.0697208,8.192843 9,8 c 0.4492744,-0.093133 1.378386,0.9467524 2,1 0.767967,0.065784 1.251963,-0.8503927 2,-1 l -2,5 c -1,1 -2,1 -4,1 -2,0 -3,0 -4,-1 z" id="path2986" style="fill:#000000;fill-opacity:1;stroke:none" />
</svg>

<svg xmlns="http://www.w3.org/2000/svg" width="14" height="14">
    <path d="M.401 7C.388 6 2 4 4 4c1 .032 2 1.587 3 1.54C8 5.655 9 3.994 10 4c2 0 3.571 2 3.574 3h-1.043C12 6 11 5.487 10 5.446 9 5.552 8 7.006 7 7c-1 .027-2-1.391-3-1.46C3 5.511 2 6 1.58 7H.4zM9 2a2 2 0 11-.06-.487M3 13L1 8c.72.144 1.387.897 2 1 .405.068 1.629-1.036 2-1 .936.09 1.276.917 2 1 .758.087 1.07-.807 2-1 .45-.093 1.378.947 2 1 .768.066 1.252-.85 2-1l-2 5c-1 1-2 1-4 1s-3 0-4-1z" fill="none" stroke="#fff" stroke-width="3" stroke-linecap="round" stroke-linejoin="round" stroke-opacity=".5"/>
    <path d="M.401 7C.388 6 2 4 4 4c1 .032 2 1.587 3 1.54C8 5.655 9 3.994 10 4c2 0 3.571 2 3.574 3h-1.043C12 6 11 5.487 10 5.446 9 5.552 8 7.006 7 7c-1 .027-2-1.391-3-1.46C3 5.511 2 6 1.58 7H.4zM9 2a2 2 0 11-.06-.487M3 13L1 8c.72.144 1.387.897 2 1 .405.068 1.629-1.036 2-1 .936.09 1.276.917 2 1 .758.087 1.07-.807 2-1 .45-.093 1.378.947 2 1 .768.066 1.252-.85 2-1l-2 5c-1 1-2 1-4 1s-3 0-4-1z"/>
</svg>
